X:0808
T:Miss Eleanora Campbell of Kilbride's Reel.
S:Aird v5 p2
M:C
L:1/8
Q:1/4=120
I: :: ||
Z:Jack Campin * www.campin.me.uk * 2009
K:D
g|f<dd<A F>GA>c|BG=cG   E/F/G/E/ Dg|f<dd>A F>GAf      |gea>g       fdd :|
g|a>df<d Adfa  |g<=cec  Gceg       |a>dfd  f/g/a/g/ fd|ge a/b/a/g/ fddTg|
  adfd   Adfa  |g<=ce>c G>ce>g     |a<fe<g f>de>c     |dB A/B/A/G/ FDD |]
<end>
<start>
